svg/u1f498.svg

<svg viewBox="0 0 128 128" xmlns="http://www.w3.org/2000/svg">
  <g>
    <g>
      <path d="M47.93,43.63L14.04,9.39c-1.15-1.17-3.03-1.17-4.2-0.02c-1.17,1.15-1.17,3.03-0.02,4.2l38.11,38.5 V43.63z" fill="#FFA000"/>
      <path d="M16.76,24.66c1.93-3.11,0.74-7.12,0.58-7.61c1.08,0.33,4.73,1.23,7.53-0.5 c3.27-2.03,3.47-5.9,1.23-8.14c-2.74-2.74-7.76-3.12-7.76-3.12L5.41,4.01c-0.69-0.07-1.26,0.51-1.2,1.2l1.28,12.92 c0,0,0.38,5.02,3.12,7.76C10.86,28.13,14.73,27.94,16.76,24.66z" fill="#FFC107"/>
      <path d="M26.1,8.4c-0.45-0.45-0.96-0.83-1.5-1.16c1.31,2.21,1.21,5.65-1.56,7.35 c-3.04,1.86-6.98,1.17-6.98,1.17s0.4,3.14-0.52,5.94c-1.01,3.08-5.73,4.43-7.9,2.57c-0.18-0.16-0.35-0.32-0.52-0.49 c0.4,0.76,0.89,1.49,1.5,2.1c2.24,2.24,6.11,2.05,8.14-1.23c1.93-3.11,0.74-7.12,0.58-7.61c1.08,0.33,4.73,1.23,7.53-0.5 C28.15,14.52,28.34,10.65,26.1,8.4z" fill="#FFA000"/>
      <path d="M47.93,49.56l-26.3-26.57c-0.88-0.97-1.18-1.92-1.31-2.69c-0.15-0.94,0.04-1.99,0.72-2.66 c-1.79-0.16-3.69-0.54-4.95-1.82c0.06,0,0.03,2.35,0.02,2.52c-0.06,1.14-0.23,2.28-0.58,3.37c-1.01,3.08-5.73,4.43-7.9,2.57 c-0.18-0.16-0.35-0.32-0.52-0.49c0.4,0.76,0.89,1.49,1.5,2.1c2.24,2.24,6.11,2.05,8.14-1.23c0.41-0.66,0.69-1.39,0.87-2.15 c0.08-0.34,0.1-0.66,0.2-0.86l30.1,30.41V49.56z" fill="#C67500"/>
    </g>
    <g>
      <path d="M94.79,20.83c-18.1,0-24.75,18.5-24.75,18.5s-6.56-18.5-24.79-18.5 c-13.7,0-29.32,10.86-23.55,35.53c5.77,24.68,48.39,55.43,48.39,55.43s42.47-30.75,48.24-55.42 C124.09,31.7,109.59,20.83,94.79,20.83z" fill="#F05A94"/>
      <g>
        <path d="M42.45,22.68c14.21,0,21.27,15.28,23.55,21.47c0.32,0.88,1.56,0.91,1.93,0.05L70,39.33 c-2.93-9.37-11-18.5-24.76-18.5c-5.7,0-11.72,1.89-16.41,5.86C32.97,23.98,37.82,22.68,42.45,22.68z" fill="#DA2E75"/>
        <path d="M94.79,20.83c-4.48,0-8.25,1.13-11.4,2.84c2.18-0.83,4.83-0.99,7.5-0.99 c13.39,0,25.38,10.15,19.97,33.63c-4.64,20.15-31.78,44.6-40.07,53.93c-0.19,0.21-0.33,0.75-0.45,1.36 c3.56-2.62,42.47-31.69,47.97-55.23C124.09,31.7,109.59,20.83,94.79,20.83z" fill="#DA2E75"/>
      </g>
      <path d="M31.2,33.94c3.1-3.87,8.63-7.06,13.32-3.38c2.54,1.99,1.43,6.07-0.84,7.79 c-3.31,2.51-6.18,4.03-8.19,7.96c-1.21,2.37-1.93,4.95-2.3,7.59c-0.15,1.04-1.51,1.3-2.03,0.38 C27.67,48.09,26.68,39.58,31.2,33.94z" fill="#F386AB"/>
      <path d="M80.88,42.07c-1.45,0-2.48-1.41-1.95-2.76c0.99-2.49,2.26-4.91,3.79-7.06 c2.26-3.17,6.57-5.03,9.3-3.1c2.79,1.97,2.43,5.9,0.47,7.8C88.27,41.02,82.97,42.07,80.88,42.07z" fill="#F386AB"/>
    </g>
    <path d="M71.9,72.3c1.86-1.59,5.22-1.79,5.22-1.79c1.2,0.05,2.02-1.07,1.2-1.93 c-1.52-1.58-3.74-2.47-6.16-2.16c-3.15,0.4-5.74,2.92-6.22,6.06c-0.33,2.18,0.32,4.22,1.57,5.73c0.79,0.95,1.97,0.32,2.07-0.99 C69.59,77.22,70.04,73.88,71.9,72.3z" fill="#C2185B"/>
    <path d="M106.78,107.21L91.86,92.67c0,0-4.07,8.18-1.82,15.92c2.47,8.51,11.34,16.17,15.71,15.35 C113.05,122.57,106.78,107.21,106.78,107.21z" fill="#FFC107"/>
    <path d="M107,106.99L92.46,92.07c0,0,8.18-4.07,15.92-1.82c8.51,2.47,16.17,11.34,15.35,15.71 C122.36,113.26,107,106.99,107,106.99z" fill="#FFC107"/>
    <path d="M110.16,113.33c-0.76,0-1.52-0.29-2.1-0.87L70.26,74.59c-1.16-1.16-1.16-3.04,0-4.2 c0.72-0.72,1.85-0.86,2.6-0.86c0.46,0,0.91,0.18,1.24,0.51l38.15,38.23c1.16,1.16,1.16,3.04,0,4.2 C111.67,113.04,110.91,113.33,110.16,113.33z" fill="#FFA000"/>
    <path d="M111.45,112.04c-0.76,0-1.52-0.29-2.1-0.87l-39.73-39.8c-0.24,0.59-0.31,1.22-0.33,1.66 c-0.01,0.36,0.13,0.71,0.38,0.97l38.38,38.46c0.58,0.58,1.34,0.87,2.1,0.87c0.76,0,1.52-0.29,2.1-0.87 c0.23-0.23,0.4-0.49,0.54-0.76C112.37,111.92,111.91,112.04,111.45,112.04z" fill="#C67500"/>
  </g>
</svg>

<svg viewBox="0 0 128 128" xmlns="http://www.w3.org/2000/svg">
  <defs/>
  <path d="M47.93,43.63 L14.04,9.39 C12.89,8.22 11.01,8.22 9.84,9.37 C8.67,10.52 8.67,12.4 9.82,13.57 L47.93,52.07 L47.93,43.63 Z" fill="#FFA000"/>
  <path d="M16.76,24.66 C18.69,21.55 17.5,17.54 17.34,17.05 C18.42,17.38 22.07,18.28 24.87,16.55 C28.14,14.52 28.34,10.65 26.1,8.41 C23.36,5.67 18.34,5.29 18.34,5.29 L5.41,4.01 C4.72,3.94 4.15,4.52 4.21,5.21 L5.49,18.13 C5.49,18.13 5.87,23.15 8.61,25.89 C10.86,28.13 14.73,27.94 16.76,24.66 Z" fill="#FFC107"/>
  <path d="M26.1,8.4 C25.65,7.95 25.14,7.57 24.6,7.24 C25.91,9.45 25.81,12.89 23.04,14.59 C20,16.45 16.06,15.76 16.06,15.76 C16.06,15.76 16.46,18.9 15.54,21.7 C14.53,24.78 9.81,26.13 7.64,24.27 C7.46,24.11 7.29,23.95 7.12,23.78 C7.52,24.54 8.01,25.27 8.62,25.88 C10.86,28.12 14.73,27.93 16.76,24.65 C18.69,21.54 17.5,17.53 17.34,17.04 C18.42,17.37 22.07,18.27 24.87,16.54 C28.15,14.52 28.34,10.65 26.1,8.4 Z" fill="#FFA000"/>
  <path d="M47.93,49.56 L21.63,22.99 C20.75,22.02 20.45,21.07 20.32,20.3 C20.17,19.36 20.36,18.31 21.04,17.64 C19.25,17.48 17.35,17.1 16.09,15.82 C16.15,15.82 16.12,18.17 16.11,18.34 C16.05,19.48 15.88,20.62 15.53,21.71 C14.52,24.79 9.8,26.14 7.63,24.28 C7.45,24.12 7.28,23.96 7.11,23.79 C7.51,24.55 8,25.28 8.61,25.89 C10.85,28.13 14.72,27.94 16.75,24.66 C17.16,24 17.44,23.27 17.62,22.51 C17.7,22.17 17.72,21.85 17.82,21.65 L47.92,52.06 L47.92,49.56 Z" fill="#C67500"/>
  <path d="M94.79,20.83 C76.69,20.83 70.04,39.33 70.04,39.33 C70.04,39.33 63.48,20.83 45.25,20.83 C31.55,20.83 15.93,31.69 21.7,56.36 C27.47,81.04 70.09,111.79 70.09,111.79 C70.09,111.79 112.56,81.04 118.33,56.37 C124.09,31.7 109.59,20.83 94.79,20.83 Z" fill="#F05A94"/>
  <path d="M42.45,22.68 C56.66,22.68 63.72,37.96 66,44.15 C66.32,45.03 67.56,45.06 67.93,44.2 L70,39.33 C67.07,29.96 59,20.83 45.24,20.83 C39.54,20.83 33.52,22.72 28.83,26.69 C32.97,23.98 37.82,22.68 42.45,22.68 Z" fill="#DA2E75"/>
  <path d="M94.79,20.83 C90.31,20.83 86.54,21.96 83.39,23.67 C85.57,22.84 88.22,22.68 90.89,22.68 C104.28,22.68 116.27,32.83 110.86,56.31 C106.22,76.46 79.08,100.91 70.79,110.24 C70.6,110.45 70.46,110.99 70.34,111.6 C73.9,108.98 112.81,79.91 118.31,56.37 C124.09,31.7 109.59,20.83 94.79,20.83 Z" fill="#DA2E75"/>
  <path d="M31.2,33.94 C34.3,30.07 39.83,26.88 44.52,30.56 C47.06,32.55 45.95,36.63 43.68,38.35 C40.37,40.86 37.5,42.38 35.49,46.31 C34.28,48.68 33.56,51.26 33.19,53.9 C33.04,54.94 31.68,55.2 31.16,54.28 C27.67,48.09 26.68,39.58 31.2,33.94 Z" fill="#F386AB"/>
  <path d="M80.88,42.07 C79.43,42.07 78.4,40.66 78.93,39.31 C79.92,36.82 81.19,34.4 82.72,32.25 C84.98,29.08 89.29,27.22 92.02,29.15 C94.81,31.12 94.45,35.05 92.49,36.95 C88.27,41.02 82.97,42.07 80.88,42.07 Z" fill="#F386AB"/>
  <path d="M71.9,72.3 C73.76,70.71 77.12,70.51 77.12,70.51 C78.32,70.56 79.14,69.44 78.32,68.58 C76.8,67 74.58,66.11 72.16,66.42 C69.01,66.82 66.42,69.34 65.94,72.48 C65.61,74.66 66.26,76.7 67.51,78.21 C68.3,79.16 69.48,78.53 69.58,77.22 C69.59,77.22 70.04,73.88 71.9,72.3 Z" fill="#C2185B"/>
  <path d="M106.78,107.21 L91.86,92.67 C91.86,92.67 87.79,100.85 90.04,108.59 C92.51,117.1 101.38,124.76 105.75,123.94 C113.05,122.57 106.78,107.21 106.78,107.21 Z" fill="#FFC107"/>
  <path d="M107,106.99 L92.46,92.07 C92.46,92.07 100.64,88 108.38,90.25 C116.89,92.72 124.55,101.59 123.73,105.96 C122.36,113.26 107,106.99 107,106.99 Z" fill="#FFC107"/>
  <path d="M110.16,113.33 C109.4,113.33 108.64,113.04 108.06,112.46 L70.26,74.59 C69.1,73.43 69.1,71.55 70.26,70.39 C70.98,69.67 72.11,69.53 72.86,69.53 C73.32,69.53 73.77,69.71 74.1,70.04 L112.25,108.27 C113.41,109.43 113.41,111.31 112.25,112.47 C111.67,113.04 110.91,113.33 110.16,113.33 Z" fill="#FFA000"/>
  <path d="M111.45,112.04 C110.69,112.04 109.93,111.75 109.35,111.17 L69.62,71.37 C69.38,71.96 69.31,72.59 69.29,73.03 C69.28,73.39 69.42,73.74 69.67,74 L108.05,112.46 C108.63,113.04 109.39,113.33 110.15,113.33 C110.91,113.33 111.67,113.04 112.25,112.46 C112.48,112.23 112.65,111.97 112.79,111.7 C112.37,111.92 111.91,112.04 111.45,112.04 Z" fill="#C67500"/>
</svg>
